packages/icons/svg/Navigation_Display_DisplayProductX9_64px.svg

<svg xmlns="http://www.w3.org/2000/svg" viewBox="0 0 64 64"><path d="M38 5H26a2 2 0 00-2 2v12a2 2 0 002 2h12a2 2 0 002-2V7a2 2 0 00-2-2zm-1 13H27V8h10zM19 5H7a2 2 0 00-2 2v12a2 2 0 002 2h12a2 2 0 002-2V7a2 2 0 00-2-2zm-1 13H8V8h10zM57 5H45a2 2 0 00-2 2v12a2 2 0 002 2h12a2 2 0 002-2V7a2 2 0 00-2-2zm-1 13H46V8h10zM38 24H26a2 2 0 00-2 2v12a2 2 0 002 2h12a2 2 0 002-2V26a2 2 0 00-2-2zm-1 13H27V27h10zM19 24H7a2 2 0 00-2 2v12a2 2 0 002 2h12a2 2 0 002-2V26a2 2 0 00-2-2zm-1 13H8V27h10zM57 24H45a2 2 0 00-2 2v12a2 2 0 002 2h12a2 2 0 002-2V26a2 2 0 00-2-2zm-1 13H46V27h10zM38 43H26a2 2 0 00-2 2v12a2 2 0 002 2h12a2 2 0 002-2V45a2 2 0 00-2-2zm-1 13H27V46h10zM19 43H7a2 2 0 00-2 2v12a2 2 0 002 2h12a2 2 0 002-2V45a2 2 0 00-2-2zm-1 13H8V46h10zM57 43H45a2 2 0 00-2 2v12a2 2 0 002 2h12a2 2 0 002-2V45a2 2 0 00-2-2zm-1 13H46V46h10z"/></svg>

<svg xmlns="http://www.w3.org/2000/svg" viewBox="0 0 64 64"><defs></defs><g id="Icon"><path  d="M38,5H26a2,2,0,0,0-2,2V19a2,2,0,0,0,2,2H38a2,2,0,0,0,2-2V7A2,2,0,0,0,38,5ZM37,18H27V8H37Z"/><path  d="M19,5H7A2,2,0,0,0,5,7V19a2,2,0,0,0,2,2H19a2,2,0,0,0,2-2V7A2,2,0,0,0,19,5ZM18,18H8V8H18Z"/><path  d="M57,5H45a2,2,0,0,0-2,2V19a2,2,0,0,0,2,2H57a2,2,0,0,0,2-2V7A2,2,0,0,0,57,5ZM56,18H46V8H56Z"/><path  d="M38,24H26a2,2,0,0,0-2,2V38a2,2,0,0,0,2,2H38a2,2,0,0,0,2-2V26A2,2,0,0,0,38,24ZM37,37H27V27H37Z"/><path  d="M19,24H7a2,2,0,0,0-2,2V38a2,2,0,0,0,2,2H19a2,2,0,0,0,2-2V26A2,2,0,0,0,19,24ZM18,37H8V27H18Z"/><path  d="M57,24H45a2,2,0,0,0-2,2V38a2,2,0,0,0,2,2H57a2,2,0,0,0,2-2V26A2,2,0,0,0,57,24ZM56,37H46V27H56Z"/><path  d="M38,43H26a2,2,0,0,0-2,2V57a2,2,0,0,0,2,2H38a2,2,0,0,0,2-2V45A2,2,0,0,0,38,43ZM37,56H27V46H37Z"/><path  d="M19,43H7a2,2,0,0,0-2,2V57a2,2,0,0,0,2,2H19a2,2,0,0,0,2-2V45A2,2,0,0,0,19,43ZM18,56H8V46H18Z"/><path  d="M57,43H45a2,2,0,0,0-2,2V57a2,2,0,0,0,2,2H57a2,2,0,0,0,2-2V45A2,2,0,0,0,57,43ZM56,56H46V46H56Z"/></g></svg>
